X:240
T:Slow Reel (from Paddy Fahy)
S:From Chulrua, Barefoot on the Altar
Z: id:ng-reels-48 transcribed by Alan Ng alan@alan-ng.net 1 Sept 2002
K:G
M:C|
|gfea gedB|G2BG dGBd|gfea gedB|GABd eAA2|gfea gedB|G2BG dGBd|bagb a2(3gfe|d2Bd eAA2:|
|c2AE cAFA|GdBG dGBd|BcAE cAFA|GedB eAAB|BcAE cAFA|GdBG dGBd|bagb a2(3gfe|d2Bd eAA2:|
